src/assets/Day1.svg

<svg width="94" height="79" viewBox="0 0 94 79" fill="none" xmlns="http://www.w3.org/2000/svg">
<path d="M19.6199 30.0422H89.9003C91.4621 30.0422 92.6334 29.5441 93.4143 28.7968C94.1952 28.0496 94.1952 27.0533 93.4143 26.3061L82.8723 15.0975L93.4143 3.88901C93.8048 3.14177 93.8048 2.14546 93.4143 1.39822C92.6334 0.650989 91.4621 0.152832 89.9003 0.152832H19.6199C18.4486 0.152832 17.2773 0.40191 16.4964 1.14915L0.878502 13.6031C-0.292831 14.5994 -0.292831 15.8448 0.878502 16.592L16.4964 29.0459C17.2773 29.7932 18.4486 30.0422 19.6199 30.0422ZM82.8723 25.0607H21.1817L8.68744 15.0975L21.1817 5.1344H82.8723L74.6729 13.8521C73.892 14.5994 73.892 15.5957 74.6729 16.3429L82.8723 25.0607Z" fill="white"/>
<path d="M82.8723 25.0607H21.1817L8.68744 15.0975L21.1817 5.1344H82.8723L74.6729 13.8521C73.892 14.5994 73.892 15.5957 74.6729 16.3429L82.8723 25.0607Z" fill="white"/>
<path d="M48.343 78.3057H41.3255C39.922 78.3057 38.9863 76.8401 38.9863 74.6417V30.674C38.9863 28.4756 39.922 27.01 41.3255 27.01H48.343C49.7465 27.01 50.6822 28.4756 50.6822 30.674V74.6417C50.6822 76.8401 49.7465 78.3057 48.343 78.3057ZM43.6647 70.9777H46.0038V34.338H43.6647V70.9777Z" fill="white"/>
<path d="M43.6647 70.9777H46.0038V34.338H43.6647V70.9777Z" fill="white"/>
<path d="M29.1981 19.8889V10.0889H32.3761C33.5241 10.0889 34.4668 10.2896 35.2041 10.6909C35.9508 11.0922 36.5014 11.6616 36.8561 12.3989C37.2201 13.1269 37.4021 13.9949 37.4021 15.0029C37.4021 16.0016 37.2201 16.8696 36.8561 17.6069C36.5014 18.3349 35.9508 18.8996 35.2041 19.3009C34.4668 19.6929 33.5241 19.8889 32.3761 19.8889H29.1981ZM30.6821 18.6289H32.3201C33.2068 18.6289 33.9068 18.4842 34.4201 18.1949C34.9428 17.9056 35.3161 17.4902 35.5401 16.9489C35.7734 16.4076 35.8901 15.7589 35.8901 15.0029C35.8901 14.2469 35.7734 13.5936 35.5401 13.0429C35.3161 12.4922 34.9428 12.0722 34.4201 11.7829C33.9068 11.4842 33.2068 11.3349 32.3201 11.3349H30.6821V18.6289ZM41.3379 20.0569C40.7499 20.0569 40.2645 19.9589 39.8819 19.7629C39.4992 19.5669 39.2145 19.3102 39.0279 18.9929C38.8412 18.6662 38.7479 18.3116 38.7479 17.9289C38.7479 17.2569 39.0092 16.7249 39.5319 16.3329C40.0545 15.9409 40.8012 15.7449 41.7719 15.7449H43.5919V15.6189C43.5919 15.0776 43.4425 14.6716 43.1439 14.4009C42.8545 14.1302 42.4765 13.9949 42.0099 13.9949C41.5992 13.9949 41.2399 14.0976 40.9319 14.3029C40.6332 14.4989 40.4512 14.7929 40.3859 15.1849H38.9019C38.9485 14.6809 39.1165 14.2516 39.4059 13.8969C39.7045 13.5329 40.0779 13.2576 40.5259 13.0709C40.9832 12.8749 41.4825 12.7769 42.0239 12.7769C42.9945 12.7769 43.7459 13.0336 44.2779 13.5469C44.8099 14.0509 45.0759 14.7416 45.0759 15.6189V19.8889H43.7879L43.6619 18.6989C43.4659 19.0816 43.1812 19.4036 42.8079 19.6649C42.4345 19.9262 41.9445 20.0569 41.3379 20.0569ZM41.6319 18.8529C42.0332 18.8529 42.3692 18.7596 42.6399 18.5729C42.9199 18.3769 43.1345 18.1202 43.2839 17.8029C43.4425 17.4856 43.5405 17.1356 43.5779 16.7529H41.9259C41.3379 16.7529 40.9179 16.8556 40.6659 17.0609C40.4232 17.2662 40.3019 17.5229 40.3019 17.8309C40.3019 18.1482 40.4185 18.4002 40.6519 18.5869C40.8945 18.7642 41.2212 18.8529 41.6319 18.8529ZM47.3994 22.9689L49.0654 19.3149H48.6594L45.9154 12.9449H47.5254L49.6534 18.0829L51.8794 12.9449H53.4474L48.9674 22.9689H47.3994ZM59.2588 19.8889V11.7689L57.6768 12.1329V11.0409L59.8468 10.0889H60.7988V19.8889H59.2588Z" fill="black"/>
</svg>

<?xml version="1.0" encoding="utf-8"?>
<!-- Generator: Adobe Illustrator 27.9.4, SVG Export Plug-In . SVG Version: 9.03 Build 54784)  -->
<svg version="1.1" id="Layer_1" xmlns="http://www.w3.org/2000/svg" xmlns:xlink="http://www.w3.org/1999/xlink" x="0px" y="0px"
	 viewBox="0 0 94 79" style="enable-background:new 0 0 94 79;" xml:space="preserve">
<style type="text/css">
	.st0{fill:#FFFFFF;}
</style>
<path class="st0" d="M19.62,30.04H89.9c1.56,0,2.73-0.5,3.51-1.25c0.78-0.75,0.78-1.74,0-2.49L82.87,15.1L93.41,3.89
	c0.39-0.75,0.39-1.74,0-2.49c-0.78-0.75-1.95-1.25-3.51-1.25H19.62c-1.17,0-2.34,0.25-3.12,1L0.88,13.6c-1.17,1-1.17,2.24,0,2.99
	L16.5,29.05C17.28,29.79,18.45,30.04,19.62,30.04z M82.87,25.06H21.18L8.69,15.1l12.49-9.96h61.69l-8.2,8.72
	c-0.78,0.75-0.78,1.74,0,2.49L82.87,25.06z"/>
<path class="st0" d="M82.87,25.06H21.18L8.69,15.1l12.49-9.96h61.69l-8.2,8.72c-0.78,0.75-0.78,1.74,0,2.49L82.87,25.06z"/>
<path class="st0" d="M38.99,74.64V30.67c0-2.2,0.94-3.66,2.34-3.66h7.02c1.4,0,2.34,1.47,2.34,3.66v43.97H38.99z M43.66,70.98H46
	V34.34h-2.34V70.98z"/>
<path class="st0" d="M43.66,70.98H46V34.34h-2.34V70.98z"/>
<path d="M29.2,19.89v-9.8h3.18c1.15,0,2.09,0.2,2.83,0.6c0.75,0.4,1.3,0.97,1.65,1.71c0.36,0.73,0.55,1.6,0.55,2.6
	c0,1-0.18,1.87-0.55,2.6c-0.35,0.73-0.91,1.29-1.65,1.69c-0.74,0.39-1.68,0.59-2.83,0.59H29.2z M30.68,18.63h1.64
	c0.89,0,1.59-0.14,2.1-0.43c0.52-0.29,0.9-0.7,1.12-1.25c0.23-0.54,0.35-1.19,0.35-1.95c0-0.76-0.12-1.41-0.35-1.96
	c-0.22-0.55-0.6-0.97-1.12-1.26c-0.51-0.3-1.21-0.45-2.1-0.45h-1.64V18.63z M41.34,20.06c-0.59,0-1.07-0.1-1.46-0.29
	c-0.38-0.2-0.67-0.45-0.85-0.77c-0.19-0.33-0.28-0.68-0.28-1.06c0-0.67,0.26-1.2,0.78-1.6c0.52-0.39,1.27-0.59,2.24-0.59h1.82v-0.13
	c0-0.54-0.15-0.95-0.45-1.22c-0.29-0.27-0.67-0.41-1.13-0.41c-0.41,0-0.77,0.1-1.08,0.31c-0.3,0.2-0.48,0.49-0.55,0.88H38.9
	c0.05-0.5,0.21-0.93,0.5-1.29c0.3-0.36,0.67-0.64,1.12-0.83c0.46-0.2,0.96-0.29,1.5-0.29c0.97,0,1.72,0.26,2.25,0.77
	c0.53,0.5,0.8,1.19,0.8,2.07v4.27h-1.29l-0.13-1.19c-0.2,0.38-0.48,0.7-0.85,0.97C42.43,19.93,41.94,20.06,41.34,20.06z
	 M41.63,18.85c0.4,0,0.74-0.09,1.01-0.28c0.28-0.2,0.49-0.45,0.64-0.77c0.16-0.32,0.26-0.67,0.29-1.05h-1.65
	c-0.59,0-1.01,0.1-1.26,0.31c-0.24,0.21-0.36,0.46-0.36,0.77c0,0.32,0.12,0.57,0.35,0.76C40.89,18.76,41.22,18.85,41.63,18.85z
	 M47.4,22.97l1.67-3.65h-0.41l-2.74-6.37h1.61l2.13,5.14l2.23-5.14h1.57l-4.48,10.02H47.4z M59.26,19.89v-8.12l-1.58,0.36v-1.09
	l2.17-0.95h0.95v9.8H59.26z"/>
</svg>
